X:1
T:100 - Jesus Ressuscitado
T:Letra: Philip Paul Bliss (1838-1876)
T:Trad.: Manuel Antônio de Menezes (1848-1941)
T:Música: Philip Paul Bliss (1838-1876)
M:3/4
L:1/8
Q:1/4=100
K:G
V:1
d>d | "G"d3 B "D7"A>B | "G"G2D2 F>G | "D"A3c B>A | "G"B2z2 d>d | d3 B "D7"A>B | "G"G2D2 F>G | "D"A3c "D7"B>A | "G"G2z2 G>G | "C"e3e e>e | "G"d2B2 B>d | "D7"c3c B>A | "G"B2z2 G>G | "C"e3e e>e | "G"d2B2 B>d | "D7"c3c B>A | "G"G4 |]
w: 1.~Eis Je-sus res-sus-ci-ta-do! E-le pa-rao céu su-biu. As pri-sões que-brou da mor-te, Gran-des fei-tos con-se-guiu. Eis Je-sus res-sus-ci-ta-do! Vi-vee rei-na lá no céu! Eis Je-sus res-sus-ci-ta-do! Vol-ta-rá ao po-vo seu!
w: 2.~Eis Je-sus res-sus-ci-ta-do, Pa-ra nos-so Mes-tre ser! Con-se-guiu, na cruz mor-ren-do, Pe-lo cren-tein-ter-ce-der. Eis Je-sus res-sus-ci-ta-do, Praa vi-tó-ria nos ga-nhar! Eis Je-sus res-sus-ci-ta-do, Pa-ra nos jus-ti-fi-car!
w: 3.~Eis Je-sus res-sus-ci-ta-do! E-lea mor-tea-ni-qui-lou, Pra res-sus-ci-tar-nos to-dos, Sim, os cren-tes que sal-vou. Eis Je-sus res-sus-ci-ta-do! E-leem bre-ve vol-ta-rá. Eis Je-sus res-sus-ci-ta-do, E Con-si-go nos te-rá!
W: 
W:
W: 1. Eis Jesus ressuscitado!
W: Ele para o céu subiu.
W: As prisões quebrou da morte,
W: Grandes feitos conseguiu.
W: Eis Jesus ressuscitado!
W: Vive e reina lá no céu!
W: Eis Jesus ressuscitado!
W: Voltará ao povo seu!
W: 
W: 2. Eis Jesus ressuscitado,
W: Para nosso Mestre ser!
W: Conseguiu, na cruz morrendo,
W: Pelo crente interceder.
W: Eis Jesus ressuscitado,
W: Pra a vitória nos ganhar!
W: Eis Jesus ressuscitado,
W: Para nos justificar!
W: 
W:
W:
W: 3. Eis Jesus ressuscitado!
W: Ele a morte aniquilou,
W: Pra ressuscitar-nos todos,
W: Sim, os crentes que salvou.
W: Eis Jesus ressuscitado!
W: Ele em breve voltará.
W: Eis Jesus ressuscitado,
W: E Consigo nos terá!
W:         
W: 





